Alivio/img/logo.svg

<svg width="81" height="24" viewBox="0 0 81 24" fill="none" xmlns="http://www.w3.org/2000/svg">
<path d="M10.15 1.76007H14.02L23.26 23.0001H17.98L16.15 18.5001H7.89997L6.12997 23.0001H0.969971L10.15 1.76007ZM11.95 7.94007L9.36997 14.5401H14.56L11.95 7.94007Z" fill="#01996D"/>
<path d="M24.8863 0.320068H29.3863V23.0001H24.8863V0.320068Z" fill="#01996D"/>
<path d="M32.6793 8.42007H37.1793V23.0001H32.6793V8.42007ZM32.3193 3.83007C32.3193 3.11007 32.5693 2.50007 33.0693 2.00007C33.5893 1.48007 34.2093 1.22007 34.9293 1.22007C35.6493 1.22007 36.2593 1.48007 36.7593 2.00007C37.2793 2.50007 37.5393 3.11007 37.5393 3.83007C37.5393 4.55007 37.2793 5.17007 36.7593 5.69007C36.2593 6.19007 35.6493 6.44007 34.9293 6.44007C34.2093 6.44007 33.5893 6.19007 33.0693 5.69007C32.5693 5.17007 32.3193 4.55007 32.3193 3.83007Z" fill="#01996D"/>
<path d="M38.8822 8.42007H43.7422L47.4322 18.3201H47.4922L50.9122 8.42007H55.4422L49.6822 23.0001H44.9122L38.8822 8.42007Z" fill="#01996D"/>
<path d="M57.1422 8.42007H61.6422V23.0001H57.1422V8.42007ZM56.7822 3.83007C56.7822 3.11007 57.0322 2.50007 57.5322 2.00007C58.0522 1.48007 58.6722 1.22007 59.3922 1.22007C60.1122 1.22007 60.7222 1.48007 61.2222 2.00007C61.7422 2.50007 62.0022 3.11007 62.0022 3.83007C62.0022 4.55007 61.7422 5.17007 61.2222 5.69007C60.7222 6.19007 60.1122 6.44007 59.3922 6.44007C58.6722 6.44007 58.0522 6.19007 57.5322 5.69007C57.0322 5.17007 56.7822 4.55007 56.7822 3.83007Z" fill="#01996D"/>
<path d="M64.3351 15.7101C64.3351 14.5501 64.5451 13.5001 64.9651 12.5601C65.3851 11.6201 65.9551 10.8201 66.6751 10.1601C67.4151 9.48007 68.2751 8.96007 69.2551 8.60007C70.2551 8.24007 71.3151 8.06007 72.4351 8.06007C73.5551 8.06007 74.6051 8.24007 75.5851 8.60007C76.5851 8.96007 77.4451 9.48007 78.1651 10.1601C78.9051 10.8201 79.4851 11.6201 79.9051 12.5601C80.3251 13.5001 80.5351 14.5501 80.5351 15.7101C80.5351 16.8701 80.3251 17.9201 79.9051 18.8601C79.4851 19.8001 78.9051 20.6101 78.1651 21.2901C77.4451 21.9501 76.5851 22.4601 75.5851 22.8201C74.6051 23.1801 73.5551 23.3601 72.4351 23.3601C71.3151 23.3601 70.2551 23.1801 69.2551 22.8201C68.2751 22.4601 67.4151 21.9501 66.6751 21.2901C65.9551 20.6101 65.3851 19.8001 64.9651 18.8601C64.5451 17.9201 64.3351 16.8701 64.3351 15.7101ZM68.8351 15.7101C68.8351 16.8101 69.1451 17.7001 69.7651 18.3801C70.4051 19.0601 71.2951 19.4001 72.4351 19.4001C73.5751 19.4001 74.4551 19.0601 75.0751 18.3801C75.7151 17.7001 76.0351 16.8101 76.0351 15.7101C76.0351 14.6101 75.7151 13.7201 75.0751 13.0401C74.4551 12.3601 73.5751 12.0201 72.4351 12.0201C71.2951 12.0201 70.4051 12.3601 69.7651 13.0401C69.1451 13.7201 68.8351 14.6101 68.8351 15.7101Z" fill="#01996D"/>
</svg>

<svg width="81" height="24" fill="none" xmlns="http://www.w3.org/2000/svg"><path d="M10.15 1.76h3.87L23.26 23h-5.28l-1.83-4.5H7.9L6.13 23H.97l9.18-21.24zm1.8 6.18l-2.58 6.6h5.19l-2.61-6.6zM24.886.32h4.5V23h-4.5V.32zm7.794 8.1h4.5V23h-4.5V8.42zm-.36-4.59c0-.72.25-1.33.75-1.83.52-.52 1.14-.78 1.86-.78.72 0 1.33.26 1.83.78.52.5.78 1.11.78 1.83s-.26 1.34-.78 1.86c-.5.5-1.11.75-1.83.75s-1.34-.25-1.86-.75a2.59 2.59 0 01-.75-1.86zm6.562 4.59h4.86l3.69 9.9h.06l3.42-9.9h4.53L49.682 23h-4.77l-6.03-14.58zm18.26 0h4.5V23h-4.5V8.42zm-.36-4.59c0-.72.25-1.33.75-1.83.52-.52 1.14-.78 1.86-.78.72 0 1.33.26 1.83.78.52.5.78 1.11.78 1.83s-.26 1.34-.78 1.86c-.5.5-1.11.75-1.83.75s-1.34-.25-1.86-.75a2.59 2.59 0 01-.75-1.86zm7.553 11.88c0-1.16.21-2.21.63-3.15.42-.94.99-1.74 1.71-2.4.74-.68 1.6-1.2 2.58-1.56 1-.36 2.06-.54 3.18-.54s2.17.18 3.15.54c1 .36 1.86.88 2.58 1.56.74.66 1.32 1.46 1.74 2.4.42.94.63 1.99.63 3.15s-.21 2.21-.63 3.15c-.42.94-1 1.75-1.74 2.43-.72.66-1.58 1.17-2.58 1.53-.98.36-2.03.54-3.15.54s-2.18-.18-3.18-.54c-.98-.36-1.84-.87-2.58-1.53a7.525 7.525 0 01-1.71-2.43c-.42-.94-.63-1.99-.63-3.15zm4.5 0c0 1.1.31 1.99.93 2.67.64.68 1.53 1.02 2.67 1.02s2.02-.34 2.64-1.02c.64-.68.96-1.57.96-2.67 0-1.1-.32-1.99-.96-2.67-.62-.68-1.5-1.02-2.64-1.02-1.14 0-2.03.34-2.67 1.02-.62.68-.93 1.57-.93 2.67z" fill="#01996D"/></svg>
